transport/svg/car_hybrid_driver2.svg

<?xml version="1.0" encoding="UTF-8" standalone="no"?>
<svg
   xmlns:dc="http://purl.org/dc/elements/1.1/"
   xmlns:cc="http://creativecommons.org/ns#"
   xmlns:rdf="http://www.w3.org/1999/02/22-rdf-syntax-ns#"
   xmlns:svg="http://www.w3.org/2000/svg"
   xmlns="http://www.w3.org/2000/svg"
   height="42.256001"
   width="113.67416"
   id="svg8"
   xml:space="preserve"
   enable-background="new 0 0 100 100"
   viewBox="0 0 113.67416 42.256001"
   y="0px"
   x="0px"
   version="1.1"><metadata
     id="metadata14"><rdf:RDF><cc:Work
         rdf:about=""><dc:format>image/svg+xml</dc:format><dc:type
           rdf:resource="http://purl.org/dc/dcmitype/StillImage" /><dc:title></dc:title></cc:Work></rdf:RDF></metadata><defs
     id="defs12" /><path
     id="path2"
     d="M 80.517578 0 L 47.650391 0.03125 C 45.603391 0.03125 44.321328 0.72685938 42.986328 2.5058594 L 35.408203 13.175781 L 21.884766 13.175781 C 19.701766 13.175781 17.927734 14.947766 17.927734 17.134766 L 17.927734 24.796875 L 15.476562 24.796875 C 14.655563 24.796875 13.992188 25.461297 13.992188 26.279297 L 13.992188 30.193359 C 13.992188 31.012359 14.655563 31.679687 15.476562 31.679688 L 33.382812 31.679688 C 34.306812 26.182688 39.080078 21.992187 44.830078 21.992188 C 50.579078 21.992188 55.351391 26.174688 56.275391 31.679688 L 85.042969 31.679688 C 85.971969 26.203688 90.741375 22.025391 96.484375 22.025391 C 102.22537 22.025391 106.98664 26.202687 107.93164 31.679688 L 112.1875 31.679688 C 113.0145 31.679688 113.67383 31.014312 113.67383 30.195312 L 113.67383 26.28125 C 113.67383 25.46325 113.0135 24.808594 112.1875 24.808594 L 109.57422 24.789062 L 109.57422 17.134766 C 109.57422 14.947766 107.79628 13.175781 105.61328 13.175781 L 92.779297 13.175781 L 85.183594 2.4746094 C 83.847594 0.69560937 82.563578 0 80.517578 0 z M 50.761719 3.4609375 L 63.978516 3.4921875 C 64.801516 3.4921875 65.460937 4.1575625 65.460938 4.9765625 L 65.460938 11.71875 C 65.462937 12.53975 64.798516 13.203125 63.978516 13.203125 L 44.228516 13.173828 C 43.407516 13.173828 43.211922 12.5085 43.794922 11.6875 L 48.884766 4.5273438 C 49.634766 3.5353438 49.935719 3.4609375 50.761719 3.4609375 z M 70.335938 3.4628906 L 80.175781 3.4628906 C 80.999781 3.4618906 81.303734 3.5353437 82.052734 4.5273438 L 87.142578 11.689453 C 87.724578 12.508453 87.530984 13.173828 86.708984 13.173828 L 70.335938 13.173828 C 69.512938 13.173828 68.851562 12.509453 68.851562 11.689453 L 68.851562 4.9472656 C 68.851562 4.1272656 69.512938 3.4628906 70.335938 3.4628906 z M 44.832031 24.96875 C 40.054031 24.96875 36.1875 28.837375 36.1875 33.609375 C 36.1875 38.384375 40.061031 42.255859 44.832031 42.255859 C 49.605031 42.255859 53.472656 38.385375 53.472656 33.609375 C 53.472656 28.834375 49.601031 24.96875 44.832031 24.96875 z M 96.380859 24.96875 C 91.599859 24.96875 87.740234 28.837375 87.740234 33.609375 C 87.740234 38.384375 91.609859 42.255859 96.380859 42.255859 C 101.15186 42.255859 105.02344 38.385375 105.02344 33.609375 C 105.02344 28.834375 101.14986 24.96875 96.380859 24.96875 z M 44.828125 29.382812 C 47.161125 29.383813 49.054687 31.274375 49.054688 33.609375 C 49.054688 35.945375 47.160125 37.839844 44.828125 37.839844 C 42.491125 37.839844 40.597656 35.945375 40.597656 33.609375 C 40.597656 31.274375 42.492125 29.382813 44.828125 29.382812 z M 96.480469 29.414062 C 98.813469 29.414062 100.70898 31.305625 100.70898 33.640625 C 100.70898 35.975625 98.813469 37.871094 96.480469 37.871094 C 94.145469 37.871094 92.253906 35.975625 92.253906 33.640625 C 92.253906 31.305625 94.145469 29.414063 96.480469 29.414062 z "
     style="fill:#000000" /><text
     style="font-weight:bold;font-size:5px;font-family:'Helvetica Neue', Helvetica, Arial-Unicode, Arial, Sans-serif;fill:#000000"
     id="text4"
     font-weight="bold"
     font-size="5px"
     y="88.834999"
     x="13.935163">Created by Simon Child</text>
<text
     style="font-weight:bold;font-size:5px;font-family:'Helvetica Neue', Helvetica, Arial-Unicode, Arial, Sans-serif;fill:#000000"
     id="text6"
     font-weight="bold"
     font-size="5px"
     y="93.834999"
     x="13.935163">from the Noun Project</text>
<path
     id="path4491"
     d="M 81.391527,9.4832249 A 4.8331566,4.8331566 0 0 1 76.558371,14.316381 4.8331566,4.8331566 0 0 1 71.725214,9.4832249 4.8331566,4.8331566 0 0 1 76.558371,4.6500683 4.8331566,4.8331566 0 0 1 81.391527,9.4832249 Z"
     style="fill:#000000;fill-opacity:1;stroke:none;stroke-width:1;stroke-miterlimit:4;stroke-dasharray:none;stroke-opacity:1" /><path
     d="M 10.984463,8.8796593 V 4.485874 H 8.7875705 V 8.8796593 H 4.3937853 V 4.485874 H 2.1968926 V 8.8796593 H 0 V 17.66723 c 0,2.446539 1.9222811,4.293926 4.3438559,4.293926 v 4.992938 h 4.493644 v -4.992938 c 2.4215751,0 4.3438561,-1.847387 4.3438561,-4.268961 V 8.8796593 Z"
     id="path2-2"
     style="stroke-width:0.24964689" /><path
     id="rect4523"
     d="M 4.3438554,25.36511 H 16.91907 v 4.443856 H 4.3438554 Z"
     style="fill:#000000;fill-opacity:1;stroke:none;stroke-width:1;stroke-miterlimit:4;stroke-dasharray:none;stroke-opacity:1" /></svg>

<?xml version="1.0" encoding="UTF-8" standalone="no"?>
<svg
   xmlns:dc="http://purl.org/dc/elements/1.1/"
   xmlns:cc="http://creativecommons.org/ns#"
   xmlns:rdf="http://www.w3.org/1999/02/22-rdf-syntax-ns#"
   xmlns:svg="http://www.w3.org/2000/svg"
   xmlns="http://www.w3.org/2000/svg"
   version="1.1"
   x="0px"
   y="0px"
   viewBox="0 0 113.67416 42.256001"
   enable-background="new 0 0 100 100"
   xml:space="preserve"
   id="svg8"
   width="113.67416"
   height="42.256001"><metadata
     id="metadata14"><rdf:RDF><cc:Work
         rdf:about=""><dc:format>image/svg+xml</dc:format><dc:type
           rdf:resource="http://purl.org/dc/dcmitype/StillImage" /><dc:title></dc:title></cc:Work></rdf:RDF></metadata><defs
     id="defs12" /><path
     d="m 112.18716,31.68 c 0.827,0 1.487,-0.666 1.487,-1.485 v -3.914 c 0,-0.818 -0.661,-1.473 -1.487,-1.473 l -2.613,-0.018 v -7.656 c 0,-2.187 -1.777,-3.958 -3.96,-3.958 H 92.780163 l -7.596,-10.702 C 83.848163,0.695 82.563163,0 80.517163,0 l -32.867,0.032 c -2.047,0 -3.329,0.694 -4.664,2.473 l -7.577,10.671 h -13.524 c -2.183,0 -3.957,1.771 -3.957,3.958 v 7.662 h -2.452 c -0.821,0 -1.484,0.666 -1.484,1.484 v 3.914 c 0,0.819 0.663,1.485 1.484,1.485 h 17.906 c 0.924,-5.497 5.697,-9.686 11.447,-9.686 5.749,0 10.522,4.181 11.446,9.686 h 28.768 c 0.929,-5.476 5.698,-9.654 11.441,-9.654 5.740997,0 10.502997,4.177 11.447997,9.654 h 4.255 z m -48.207997,-18.476 -19.751,-0.03 c -0.821,0 -1.017,-0.665 -0.434,-1.486 l 5.091,-7.161 c 0.75,-0.992 1.05,-1.066 1.876,-1.066 l 13.218,0.032 c 0.823,0 1.482,0.664 1.482,1.483 v 6.743 c 0.002,0.821 -0.662,1.485 -1.482,1.485 z m -17.693,2.704 h 3.57 c 1.318,0 1.318,1.979 0,1.979 h -3.577 c -0.245,0.294 -0.625,0.494 -1.14,0.494 -1.979,0 -1.979,-2.969 0.014,-2.969 0.507,10e-4 0.886,0.2 1.133,0.496 z m 25.923,0 h 3.569 c 1.321,0 1.321,1.979 0,1.979 h -3.569 c -0.254,0.294 -0.626,0.494 -1.143,0.494 -1.98,0 -1.98,-2.969 0.008,-2.969 0.509,10e-4 0.889,0.2 1.135,0.496 z m 9.843,-11.38 5.09,7.161 c 0.582,0.819 0.389,1.485 -0.433,1.485 h -16.374 c -0.823,0 -1.484,-0.665 -1.484,-1.485 V 4.947 c 0,-0.82 0.661,-1.484 1.484,-1.484 l 9.841,-10e-4 c 0.824,-0.001 1.127,0.074 1.876,1.066 z m -32.997,29.082 c 0,2.336 -1.895,4.229 -4.227,4.229 -2.337,0 -4.231,-1.893 -4.231,-4.229 0,-2.335 1.895,-4.228 4.231,-4.228 2.333,10e-4 4.227,1.893 4.227,4.228 z m 4.418,0 c 0,-4.775 -3.873,-8.641 -8.642,-8.641 -4.778,0 -8.643,3.869 -8.643,8.641 0,4.775 3.872,8.646 8.643,8.646 4.773,0 8.642,-3.87 8.642,-8.646 z m 47.235997,0.031 c 0,2.335 -1.894997,4.231 -4.227997,4.231 -2.335,0 -4.227,-1.896 -4.227,-4.231 0,-2.335 1.892,-4.227 4.227,-4.227 2.333,0 4.227997,1.892 4.227997,4.227 z m 4.314,-0.031 c 0,-4.775 -3.873,-8.641 -8.641997,-8.641 -4.781,0 -8.641,3.869 -8.641,8.641 0,4.775 3.87,8.646 8.641,8.646 4.770997,0 8.641997,-3.87 8.641997,-8.646 z"
     id="path2"
     style="fill:#000000" /><text
     x="13.935163"
     y="88.834999"
     font-size="5px"
     font-weight="bold"
     id="text4"
     style="font-weight:bold;font-size:5px;font-family:'Helvetica Neue', Helvetica, Arial-Unicode, Arial, Sans-serif;fill:#000000">Created by Simon Child</text>
<text
     x="13.935163"
     y="93.834999"
     font-size="5px"
     font-weight="bold"
     id="text6"
     style="font-weight:bold;font-size:5px;font-family:'Helvetica Neue', Helvetica, Arial-Unicode, Arial, Sans-serif;fill:#000000">from the Noun Project</text>
<path
     style="fill:#000000;fill-opacity:1;stroke:none;stroke-width:1;stroke-miterlimit:4;stroke-dasharray:none;stroke-opacity:1"
     d="M 81.391527,9.4832249 A 4.8331566,4.8331566 0 0 1 76.558371,14.316381 4.8331566,4.8331566 0 0 1 71.725214,9.4832249 4.8331566,4.8331566 0 0 1 76.558371,4.6500683 4.8331566,4.8331566 0 0 1 81.391527,9.4832249 Z"
     id="path4491" /><path
     style="stroke-width:0.24964689"
     id="path2-2"
     d="M 10.984463,8.8796593 V 4.485874 H 8.7875705 V 8.8796593 H 4.3937853 V 4.485874 H 2.1968926 V 8.8796593 H 0 V 17.66723 c 0,2.446539 1.9222811,4.293926 4.3438559,4.293926 v 4.992938 h 4.493644 v -4.992938 c 2.4215751,0 4.3438561,-1.847387 4.3438561,-4.268961 V 8.8796593 Z" /><path
     style="fill:#000000;fill-opacity:1;stroke:none;stroke-width:1;stroke-miterlimit:4;stroke-dasharray:none;stroke-opacity:1"
     d="M 4.3438554,25.36511 H 16.91907 v 4.443856 H 4.3438554 Z"
     id="rect4523" /></svg>
